X:57
T: STORCH STORCH STANE FLIEG UEBER HANE
N: K0749
O: Europa, Mitteleuropa, Deutschland, Odenwald, Alsbach
R: Kinder -, Tier - Lied
M: 2/4
L: 1/8
K: F
 | ccdd | ccAz | ccdd | ccAz |
ccdd | ccAz | ccdd | ccAz |
ccdd | ccAz | ccdd | ccAz |
ccdd | ccAz | ccdd | ccAz |
c2B2 | A4

@@@ Tune index: 7394
